X: 5
T:O'er The Hills And Far Away. JaW.005
T:Over The Hills,etc..aka. JaW.005
M:2/4
Q:1/4=50
S:James Winder Ms, Lancashire, 1835-41
R:Air
O:England
A:Wyresdale,Lancashire
H:1/8
Z:vmp.Chris Partington, Aug 2004
K:G
A|dfdf|dBBA|dfdf|geeA|!
dfdf|dBg2|B(A/G/) AB|gee:|!
"qu's"f/g/|ab a/g/f/e/|dBBf|ab b/a/g/f/|ge ef/g/|!
ab "qu's"a/g/f/e/|dBg2|BA/G/ AB|gee|]
